assets/icons/24px/stroke/arrow-thick-right-24px.svg

<svg width="24" height="24" viewBox="0 0 24 24" fill="none" xmlns="http://www.w3.org/2000/svg">
<path fill-rule="evenodd" clip-rule="evenodd" d="M19.8765 11.3818C19.5935 11.0107 19.1511 10.5654 18.4645 9.87873L17.0502 8.46452C16.1255 7.53973 15.8475 7.28683 15.5227 7.15229C15.1979 7.01775 14.8226 7.00005 13.5147 7.00005L4.27323 7.00005L5.80158 8.66734C6.35378 9.26966 6.83201 9.79131 7.16364 10.2627C7.52014 10.7695 7.78686 11.3254 7.78686 12.0001C7.78686 12.6747 7.52014 13.2306 7.16364 13.7374C6.83201 14.2088 6.35377 14.7304 5.80157 15.3328L4.27323 17.0001H13.5147C14.8226 17.0001 15.1979 16.9824 15.5227 16.8478C15.8475 16.7133 16.1255 16.4604 17.0502 15.5356L18.4645 14.1214C19.1511 13.4347 19.5935 12.9894 19.8765 12.6183C20.142 12.2704 20.1716 12.1077 20.1716 12.0001C20.1716 11.8924 20.142 11.7297 19.8765 11.3818ZM21.4666 10.1686C21.8678 10.6944 22.1716 11.2793 22.1716 12.0001C22.1716 12.7208 21.8678 13.3057 21.4666 13.8315C21.0922 14.3222 20.5521 14.8622 19.9252 15.489L18.4645 16.9498C18.4239 16.9904 18.3839 17.0304 18.3444 17.07C17.5955 17.82 17.0269 18.3895 16.2881 18.6956C15.5493 19.0016 14.7445 19.001 13.6846 19.0001C13.6287 19.0001 13.5721 19.0001 13.5147 19.0001H4.27323C4.25237 19.0001 4.23151 19.0001 4.21066 19.0001C3.77794 19.0002 3.35011 19.0003 3.01762 18.9526C2.69658 18.9065 2.05338 18.7628 1.76359 18.104C1.47381 17.4453 1.80248 16.874 1.98547 16.6063C2.17498 16.3289 2.46416 16.0136 2.75665 15.6947C2.77074 15.6793 2.78483 15.664 2.79892 15.6486L4.28518 14.0272C4.89156 13.3657 5.27967 12.9394 5.52782 12.5867C5.75949 12.2573 5.78686 12.1034 5.78686 12.0001C5.78686 11.8967 5.75949 11.7428 5.52782 11.4134C5.27967 11.0607 4.89156 10.6344 4.28518 9.97288L2.79892 8.3515C2.78484 8.33614 2.77075 8.32077 2.75667 8.30542C2.46417 7.9865 2.17499 7.67119 1.98547 7.39385C1.80248 7.12607 1.47381 6.5548 1.76359 5.89606C2.05338 5.23731 2.69658 5.09358 3.01762 5.04752C3.35012 4.99982 3.77794 4.99993 4.21066 5.00004C4.23151 5.00005 4.25237 5.00005 4.27323 5.00005L13.5147 5.00005C13.5721 5.00005 13.6287 5.00001 13.6846 4.99996C14.7445 4.99913 15.5493 4.9985 16.2881 5.30453C17.0269 5.61057 17.5955 6.18007 18.3444 6.93008C18.3839 6.96966 18.4239 7.00973 18.4645 7.0503L19.8787 8.46452C19.8942 8.48008 19.9098 8.4956 19.9252 8.51106C20.5521 9.13787 21.0922 9.67794 21.4666 10.1686Z" fill="white"/>
</svg>

<svg width="24" height="24" fill="none" xmlns="http://www.w3.org/2000/svg"><path fill-rule="evenodd" clip-rule="evenodd" d="M19.877 11.382c-.284-.371-.726-.817-1.412-1.503L17.05 8.465c-.925-.925-1.203-1.178-1.527-1.313-.325-.134-.7-.152-2.008-.152H4.273l1.529 1.667c.552.603 1.03 1.124 1.362 1.596.356.507.623 1.062.623 1.737s-.267 1.23-.623 1.737c-.332.472-.81.993-1.362 1.596L4.273 17h9.242c1.308 0 1.683-.018 2.008-.152.325-.135.602-.388 1.527-1.312l1.415-1.415c.686-.686 1.128-1.132 1.412-1.503.265-.348.295-.51.295-.618 0-.108-.03-.27-.296-.618zm1.59-1.213c.4.525.705 1.11.705 1.831 0 .72-.304 1.306-.705 1.832-.375.49-.915 1.03-1.542 1.657l-1.46 1.46-.12.121c-.75.75-1.318 1.32-2.057 1.626-.739.306-1.543.305-2.603.304H4.21c-.433 0-.86 0-1.193-.047-.321-.046-.965-.19-1.254-.849-.29-.659.038-1.23.221-1.498.19-.277.48-.592.772-.911l.042-.046 1.486-1.622c.607-.661.995-1.088 1.243-1.44.231-.33.259-.484.259-.587 0-.103-.028-.257-.26-.587-.247-.352-.635-.779-1.242-1.44L2.8 8.35l-.042-.046c-.293-.318-.582-.634-.772-.911-.183-.268-.511-.84-.221-1.498.29-.659.933-.802 1.254-.848C3.35 5 3.778 5 4.21 5h9.474c1.06 0 1.864-.002 2.603.305.739.306 1.308.875 2.056 1.625l.12.12 1.415 1.415.046.046c.627.627 1.167 1.167 1.542 1.658z" fill="#fff"/></svg>
